X:021
T:Cabin Hunter* (reel) 
B:CRE3.143 (gan ainm)
F:file ID: cre.3/021cabin
R:reel
L:1/8
Q:180
M:C
K:Em
GEE2 E3F|GEE2 dBAF|GEE2 EGFE|DFAF dFAF|
GEFD E3F|GEE2 dBAF|(3GFE ED EGFE|DFAF DFA2||
Bee2 efed|Beef gfed|Bdd2 dedB|ABAG FDFA|
Bee2 efed|Beef g2fe|dgg2 egfe|d3B AGFD||

%%%

